public/phone-actions-ringing.svg

<svg width="70" height="70" viewBox="0 0 70 70" fill="none" xmlns="http://www.w3.org/2000/svg">
<rect width="70" height="70" rx="15.2174" fill="#292732"/>
<path fill-rule="evenodd" clip-rule="evenodd" d="M46.4401 50.4102C46.1056 49.9377 45.653 49.4849 45.3185 49.0715C44.5904 48.1463 43.8426 47.2211 43.0555 46.3549C42.5147 45.7548 41.9433 45.1832 41.3435 44.6422C40.8851 44.1767 40.3845 43.755 39.848 43.3823C39.3702 43.0491 38.8142 42.8456 38.2344 42.7917C37.7703 42.783 37.3132 42.9059 36.9159 43.1461C35.991 43.6776 34.7317 44.9375 33.5706 45.7249C33.3365 45.8884 33.0859 46.027 32.8229 46.1383C32.6851 46.1383 32.5277 46.2761 32.4293 46.1383L26.1126 38.7955C25.2665 37.8703 24.1448 36.8269 23.0822 35.567C22.4806 34.8941 22.0131 34.1123 21.7047 33.2638C21.6063 32.9488 21.8622 32.6141 22.1573 32.2401C22.9641 31.2165 24.381 30.1534 25.1878 29.1101C25.6627 28.6483 25.997 28.0613 26.152 27.4171C26.2 27.0762 26.1306 26.729 25.9552 26.4328C25.7191 26.0391 25.3058 25.665 25.1091 25.3894L21.6654 20.9011C21.6222 20.824 21.5629 20.7573 21.4914 20.7055C21.42 20.6536 21.3381 20.6179 21.2515 20.6008C21.1649 20.5837 21.0757 20.5856 20.9899 20.6063C20.9041 20.6271 20.8238 20.6662 20.7546 20.721C20.6854 20.7758 20.6289 20.845 20.5891 20.9238C20.5492 21.0025 20.5269 21.089 20.5237 21.1773C20.5204 21.2655 20.5364 21.3534 20.5704 21.4349C20.6045 21.5163 20.6558 21.5894 20.7208 21.6491L24.1055 26.1769L24.8926 27.2202C24.6175 27.8683 24.1679 28.4272 23.5938 28.8345C22.5796 29.6714 21.6321 30.5863 20.7602 31.5708C20.5084 31.8613 20.3275 32.2063 20.2319 32.5787C20.1363 32.9511 20.1285 33.3406 20.2092 33.7166C20.5546 34.7606 21.0955 35.7294 21.8031 36.571C22.7674 37.8309 23.9677 38.9924 24.8139 39.957L30.8944 47.4376C31.1809 47.7952 31.5734 48.0526 32.0154 48.1729C32.4574 48.2932 32.9261 48.2701 33.3542 48.1069C34.5943 47.5601 35.7374 46.8155 36.7388 45.9021C37.1127 45.6068 37.4866 45.3115 37.8014 45.1147C38.1163 44.9178 38.136 45.1147 38.136 44.9769C38.3947 45.0381 38.6324 45.1672 38.8247 45.3509C39.1986 45.6265 39.5331 45.9808 39.848 46.2564C40.1628 46.532 40.8909 47.2998 41.3829 47.851C41.8748 48.4022 42.839 49.5834 43.5278 50.4692C43.8033 50.8039 44.1575 51.1582 44.4526 51.5519C44.5704 51.7 44.6635 51.8662 44.7281 52.0441C45.0036 52.8906 44.2559 53.5599 43.4884 54.1505C42.5361 54.8507 41.4713 55.3834 40.3399 55.7253C36.4152 56.8402 32.2192 56.4904 28.533 54.741C24.7879 52.8789 21.4811 50.2418 18.8317 47.0045C15.4035 43.319 13.3769 38.5468 13.1054 33.5197C12.8889 27.3187 15.7423 22.2397 18.8514 20.7239C19.0112 20.6434 19.1333 20.5039 19.1921 20.3349C19.2509 20.1659 19.2416 19.9806 19.1663 19.8183C19.1302 19.7357 19.0779 19.6612 19.0124 19.5993C18.9468 19.5374 18.8695 19.4894 18.7849 19.4581C18.7004 19.4269 18.6104 19.413 18.5204 19.4174C18.4304 19.4218 18.3422 19.4443 18.2611 19.4837C14.778 21.1176 11.4131 26.6493 11.4131 33.5591C11.6057 39.0056 13.6938 44.2138 17.3165 48.2841C20.0884 51.7797 23.5778 54.6394 27.5491 56.6703C31.7077 58.7118 36.4749 59.1396 40.9303 57.8711C42.661 57.3782 44.2561 56.4962 45.594 55.2922C46.1664 54.8308 46.5935 54.2138 46.8239 53.5153C47.0543 52.8169 47.0782 52.0668 46.8927 51.3551C46.7864 51.0206 46.6341 50.7026 46.4401 50.4102Z" fill="#46C1E3"/>
<path fill-rule="evenodd" clip-rule="evenodd" d="M39.7692 35.2914C39.9466 35.3328 40.1332 35.3022 40.2881 35.2063C40.4429 35.1103 40.5535 34.9569 40.5956 34.7796C41.1388 33.2922 41.1388 31.6605 40.5956 30.1731C40.3547 29.5156 39.9944 28.9083 39.533 28.3817C39.0583 27.8583 38.4827 27.4364 37.8407 27.1415C36.4245 26.42 34.7926 26.2449 33.2557 26.6493C33.1782 26.6584 33.1032 26.6826 33.035 26.7207C32.9669 26.7587 32.9069 26.8098 32.8584 26.871C32.81 26.9323 32.7741 27.0025 32.7528 27.0776C32.7315 27.1527 32.7252 27.2313 32.7342 27.3088C32.7433 27.3864 32.7675 27.4614 32.8055 27.5296C32.8435 27.5978 32.8946 27.6578 32.9558 27.7062C33.0171 27.7547 33.0872 27.7906 33.1623 27.8119C33.2374 27.8332 33.3159 27.8395 33.3934 27.8305C34.5939 27.8574 35.7535 28.2717 36.6994 29.0116C37.0852 29.2891 37.4413 29.6058 37.762 29.9566C38.3473 30.555 38.7881 31.2794 39.0507 32.0744C39.3134 32.8693 39.3908 33.7139 39.2772 34.5434C39.2524 34.7068 39.2889 34.8737 39.3797 35.0118C39.4706 35.1499 39.6093 35.2495 39.7692 35.2914Z" fill="#46C1E3"/>
<path fill-rule="evenodd" clip-rule="evenodd" d="M46.8336 24.7792C45.5926 22.9864 43.9303 21.5262 41.9928 20.527C40.1564 19.6447 38.1213 19.2579 36.0894 19.4049C34.138 19.5223 32.2426 20.1027 30.5598 21.0979C30.4189 21.171 30.3128 21.2971 30.2648 21.4485C30.2168 21.5998 30.2309 21.7641 30.304 21.905C30.3771 22.046 30.5031 22.1522 30.6544 22.2002C30.8057 22.2481 30.9699 22.234 31.1108 22.161C32.6736 21.408 34.395 21.0434 36.1287 21.0979C37.8143 21.1398 39.4609 21.6143 40.9105 22.4759C42.482 23.3663 43.8284 24.6055 44.8461 26.0981C45.6487 27.0743 46.3171 28.1535 46.8336 29.3069C47.4657 30.7041 47.7527 32.2329 47.6705 33.7643C47.5883 35.2958 47.1393 36.785 46.3613 38.1065C46.3096 38.1797 46.273 38.2626 46.2539 38.3502C46.2347 38.4378 46.2334 38.5283 46.2499 38.6165C46.2664 38.7046 46.3005 38.7885 46.35 38.8632C46.3996 38.938 46.4637 39.0019 46.5384 39.0514C46.6855 39.1529 46.8663 39.1931 47.0425 39.1637C47.2188 39.1344 47.3767 39.0376 47.483 38.8939C48.5182 37.4159 49.179 35.7085 49.4087 33.9185C49.6384 32.1285 49.43 30.3095 48.8014 28.6179C48.3401 27.2475 47.6769 25.9536 46.8336 24.7792Z" fill="#46C1E3"/>
<path fill-rule="evenodd" clip-rule="evenodd" d="M58.3846 26.0785C58.2074 24.984 57.9036 23.9137 57.4794 22.8894C57.0614 21.8816 56.5543 20.9132 55.9642 19.9956C54.5395 17.7836 52.6697 15.8929 50.474 14.4441C48.2706 13.0284 45.7985 12.0834 43.2128 11.6684C38.1295 10.9316 32.9431 11.7986 28.3755 14.1489C28.2298 14.2172 28.1171 14.3404 28.0618 14.4916C28.0065 14.6428 28.0132 14.8097 28.0803 14.956C28.1122 15.0274 28.1579 15.0918 28.2149 15.1455C28.2719 15.1991 28.3389 15.2408 28.4121 15.2683C28.4854 15.2958 28.5633 15.3084 28.6415 15.3055C28.7197 15.3026 28.7965 15.2841 28.8674 15.2513C33.264 13.2724 38.1646 12.7017 42.8979 13.6173C45.1781 14.1042 47.3429 15.0266 49.2736 16.334C51.1747 17.6369 52.7998 19.3027 54.0554 21.2358C54.5914 22.0244 55.0525 22.8614 55.4329 23.7359C55.8156 24.5951 56.1058 25.4925 56.2987 26.4131C56.6789 28.4711 56.7519 30.5742 56.5152 32.6536C56.3045 34.7457 55.7666 36.7917 54.9213 38.7168L52.4615 42.8902C52.3771 43.0498 52.3587 43.2361 52.4102 43.4091C52.4617 43.5822 52.5791 43.7281 52.737 43.8154C52.8965 43.8999 53.0828 43.9183 53.2557 43.8668C53.4287 43.8152 53.5745 43.6978 53.6619 43.5398L56.3184 39.3861C57.3154 37.3391 57.9796 35.1461 58.2862 32.8898C58.6509 30.6363 58.684 28.3416 58.3846 26.0785Z" fill="#46C1E3"/>
</svg>

<svg xmlns="http://www.w3.org/2000/svg" width="70" height="70" fill="none"><rect width="70" height="70" fill="#292732" rx="15.217"/><path fill="#46C1E3" fill-rule="evenodd" d="M46.44 50.41c-.334-.472-.787-.925-1.121-1.338-.729-.926-1.476-1.85-2.264-2.717q-.811-.9-1.712-1.713a10.5 10.5 0 0 0-1.495-1.26 3.37 3.37 0 0 0-1.614-.59 2.46 2.46 0 0 0-1.318.354c-.925.532-2.184 1.791-3.345 2.579a4 4 0 0 1-.748.413c-.138 0-.295.138-.394 0l-6.316-7.343c-.846-.925-1.968-1.968-3.03-3.228a7.1 7.1 0 0 1-1.378-2.303c-.099-.315.157-.65.452-1.024.807-1.024 2.224-2.087 3.03-3.13.476-.462.81-1.049.965-1.693a1.52 1.52 0 0 0-.197-.984c-.236-.394-.65-.768-.846-1.044l-3.444-4.488a.609.609 0 1 0-.944.748l3.384 4.528.788 1.043a3.8 3.8 0 0 1-1.3 1.614 25 25 0 0 0-2.833 2.737 2.48 2.48 0 0 0-.55 2.146 8.7 8.7 0 0 0 1.593 2.854c.964 1.26 2.165 2.421 3.01 3.386l6.081 7.48a2.165 2.165 0 0 0 2.46.67 12.5 12.5 0 0 0 3.385-2.205c.374-.295.748-.59 1.062-.787s.335 0 .335-.138c.259.061.496.19.689.374.374.276.708.63 1.023.905.315.276 1.043 1.044 1.535 1.595s1.456 1.732 2.145 2.618c.275.335.63.69.925 1.083q.177.224.275.492c.276.847-.472 1.516-1.24 2.107-.952.7-2.017 1.232-3.148 1.574a16.82 16.82 0 0 1-11.807-.984 29.5 29.5 0 0 1-9.701-7.736 21.5 21.5 0 0 1-5.727-13.485c-.216-6.201 2.637-11.28 5.746-12.796a.69.69 0 0 0 .315-.906.67.67 0 0 0-.905-.334c-3.483 1.634-6.848 7.165-6.848 14.075a23.4 23.4 0 0 0 5.904 14.725 31.2 31.2 0 0 0 10.232 8.386 18.73 18.73 0 0 0 13.381 1.201 11.8 11.8 0 0 0 4.664-2.579 3.82 3.82 0 0 0 1.299-3.937 3.8 3.8 0 0 0-.453-.945M39.77 35.291a.69.69 0 0 0 .826-.511 6.7 6.7 0 0 0 0-4.607 5.7 5.7 0 0 0-1.063-1.791 5.2 5.2 0 0 0-1.692-1.24 6.47 6.47 0 0 0-4.585-.493.595.595 0 0 0 .137 1.181c1.2.027 2.36.442 3.306 1.182q.58.417 1.063.945a5.5 5.5 0 0 1 1.515 4.586.67.67 0 0 0 .492.748" clip-rule="evenodd"/><path fill="#46C1E3" fill-rule="evenodd" d="M46.834 24.78a13.3 13.3 0 0 0-4.841-4.253 11.7 11.7 0 0 0-5.904-1.122 12.3 12.3 0 0 0-5.53 1.693.599.599 0 0 0 .552 1.063 10.8 10.8 0 0 1 5.018-1.063 9.84 9.84 0 0 1 4.782 1.378 11.8 11.8 0 0 1 3.935 3.622 14.2 14.2 0 0 1 1.988 3.209 9.57 9.57 0 0 1-.473 8.8.67.67 0 0 0 .177.944.69.69 0 0 0 .945-.157 11.15 11.15 0 0 0 1.318-10.276 14.5 14.5 0 0 0-1.967-3.839" clip-rule="evenodd"/><path fill="#46C1E3" fill-rule="evenodd" d="M58.385 26.079a14.3 14.3 0 0 0-.906-3.19 18.3 18.3 0 0 0-1.515-2.893 18.9 18.9 0 0 0-5.49-5.552 19 19 0 0 0-7.261-2.776 24.7 24.7 0 0 0-14.838 2.48.61.61 0 0 0 .037 1.12.6.6 0 0 0 .455-.017 23.37 23.37 0 0 1 14.03-1.634c2.281.487 4.446 1.41 6.377 2.717a17.5 17.5 0 0 1 4.781 4.902c.536.788.998 1.625 1.378 2.5.383.86.673 1.756.866 2.677.38 2.058.453 4.161.216 6.24a20.1 20.1 0 0 1-1.594 6.064l-2.46 4.173a.69.69 0 0 0 .276.925.69.69 0 0 0 .925-.275l2.656-4.154a21.4 21.4 0 0 0 1.968-6.496c.365-2.254.398-4.548.099-6.812" clip-rule="evenodd"/></svg>
